trunk/public/assets/images/icons/green/move_up/doit.svg

<svg width="16" height="16" xmlns="http://www.w3.org/2000/svg" viewBox="0 0 16 16" shape-rendering="geometricPrecision" fill="#00962d"><defs><mask id="a"><rect fill="#fff" width="100%" height="100%"/><path fill="#000" d="M12.892-.396l-4.507 4.51 2.47 2.47 2.04-2.035 2.036 2.034 2.474-2.47z"/></mask></defs><path fill="#cb1800" d="M12.894 3.136L14.93 5.17l1.06-1.056-3.098-3.096L9.8 4.114l1.056 1.057"/><g mask="url(#a)"><ellipse cx="6.496" cy="3.368" rx="1.771" ry=".427"/><ellipse cx="10.762" cy="3.368" rx="1.772" ry=".427"/><path d="M8.268 3.573v.704c-.276.075-.448.173-.448.282 0 .234.793.426 1.77.426.978 0 1.77-.19 1.77-.427 0-.236-.792-.428-1.77-.428-.213 0-.414.01-.604.027v-.587h-.718z"/><path d="M12.533 3.573v1.15c0 .185-.49.34-1.172.4v.79c0 .235-.792.427-1.77.427-.977 0-1.77-.19-1.77-.427h-.006v-.907c-.194.053-.44.093-.718.118v.79c0 .235-.793.427-1.77.427-.98 0-1.772-.19-1.772-.426H3.55V4.522h.02c-.006.012-.016.024-.016.037 0 .234.793.426 1.77.426.98 0 1.772-.19 1.772-.427 0-.236-.793-.428-1.77-.428-.214 0-.415.01-.605.027v-.587h-.28L.974 7.038v6.88H11.56l3.466-3.466v-6.88h-2.493zm-1.725 9.493H1.883v-5.31h8.925v5.31zm3.7-3.16l-2.637 2.636v-5.15l2.638-2.637v5.152z"/></g></svg>

<?xml version="1.0"?><!DOCTYPE svg PUBLIC "-//W3C//DTD SVG 1.1//EN" "http://www.w3.org/Graphics/SVG/1.1/DTD/svg11.dtd"><svg width="16px" height="16px" xmlns="http://www.w3.org/2000/svg" viewBox="0 0 16 16" shape-rendering="geometricPrecision" fill="#00962d"><defs><mask id="move_up-path"><rect fill="#fff" width="100%" height="100%"/><polygon points="12.892,-0.396 8.385,4.114 10.856,6.585 12.894,4.549 14.931,6.584 17.404,4.114 " fill="#000"/></mask></defs><polygon points="12.894,3.136 14.931,5.171 15.989,4.114 12.892,1.018 9.799,4.114 10.856,5.171 " fill="#cb1800"/><g mask="url(#move_up-path)"><ellipse cx="6.496" cy="3.368" rx="1.771" ry="0.427"/><ellipse cx="10.762" cy="3.368" rx="1.772" ry="0.427"/><path d="M8.268,3.573v0.704C7.992,4.352,7.82,4.45,7.82,4.559c0,0.235,0.793,0.427,1.77,0.427 c0.978,0,1.771-0.191,1.771-0.427c0-0.235-0.793-0.427-1.771-0.427c-0.213,0-0.414,0.01-0.604,0.027V3.573H8.268z"/><path d="M12.533,3.573v1.15c0,0.185-0.49,0.34-1.172,0.4v0.79c0,0.235-0.793,0.427-1.771,0.427 c-0.977,0-1.77-0.191-1.77-0.427H7.814V5.006C7.62,5.059,7.375,5.099,7.096,5.124v0.79c0,0.235-0.793,0.427-1.771,0.427 c-0.978,0-1.771-0.191-1.771-0.427H3.549V4.522h0.02C3.564,4.534,3.554,4.546,3.554,4.559c0,0.235,0.793,0.427,1.771,0.427 c0.979,0,1.771-0.191,1.771-0.427c0-0.235-0.793-0.427-1.771-0.427c-0.213,0-0.414,0.01-0.604,0.027V3.573H4.439L0.975,7.038 v6.879h10.586l3.465-3.465V3.573H12.533z M10.808,13.066H1.883V7.755h8.925V13.066z M14.508,9.907l-2.637,2.635V7.391l2.637-2.636 V9.907z"/></g></svg>
